src/assets/icons/enumeration.svg

<svg width="34" height="24" viewBox="0 0 34 24" fill="none" xmlns="http://www.w3.org/2000/svg">
<rect x="0.5" y="0.5" width="33" height="23" rx="2.5" fill="#F6ECFC" stroke="#E0C1F4"/>
<path fill-rule="evenodd" clip-rule="evenodd" d="M11.1667 7C10.5223 7 10 7.52233 10 8.16667C10 8.811 10.5223 9.33333 11.1667 9.33333C11.811 9.33333 12.3333 8.811 12.3333 8.16667C12.3333 7.52233 11.811 7 11.1667 7ZM11.1667 11.0303C10.5223 11.0303 10 11.5526 10 12.197C10 12.8413 10.5223 13.3636 11.1667 13.3636C11.811 13.3636 12.3333 12.8413 12.3333 12.197C12.3333 11.5526 11.811 11.0303 11.1667 11.0303ZM10 16.2292C10 15.5848 10.5223 15.0625 11.1667 15.0625C11.811 15.0625 12.3333 15.5848 12.3333 16.2292C12.3333 16.8735 11.811 17.3958 11.1667 17.3958C10.5223 17.3958 10 16.8735 10 16.2292ZM14.0055 7.21094C13.7846 7.21094 13.6055 7.39002 13.6055 7.61094V8.72003C13.6055 8.94094 13.7846 9.12003 14.0055 9.12003H23.5994C23.8203 9.12003 23.9994 8.94094 23.9994 8.72003V7.61094C23.9994 7.39002 23.8203 7.21094 23.5994 7.21094H14.0055ZM13.6061 11.6424C13.6061 11.4215 13.7851 11.2424 14.0061 11.2424H23.6C23.8209 11.2424 24 11.4215 24 11.6424V12.7515C24 12.9724 23.8209 13.1515 23.6 13.1515H14.0061C13.7851 13.1515 13.6061 12.9724 13.6061 12.7515V11.6424ZM14.0061 15.2727C13.7851 15.2727 13.6061 15.4518 13.6061 15.6727V16.7818C13.6061 17.0027 13.7851 17.1818 14.0061 17.1818H23.6C23.8209 17.1818 24 17.0027 24 16.7818V15.6727C24 15.4518 23.8209 15.2727 23.6 15.2727H14.0061Z" fill="#8724CB"/>
</svg>

<svg width="34" height="24" fill="none" xmlns="http://www.w3.org/2000/svg"><rect x=".5" y=".5" width="33" height="23" rx="2.5" fill="#F6ECFC" stroke="#E0C1F4"/><path fill-rule="evenodd" clip-rule="evenodd" d="M11.167 7a1.167 1.167 0 100 2.333 1.167 1.167 0 000-2.333zm0 4.03a1.167 1.167 0 100 2.334 1.167 1.167 0 000-2.334zM10 16.23a1.167 1.167 0 112.333 0 1.167 1.167 0 01-2.333 0zm4.005-9.02a.4.4 0 00-.4.4v1.11c0 .22.18.4.4.4H23.6a.4.4 0 00.4-.4V7.61a.4.4 0 00-.4-.4h-9.594zm-.399 4.432a.4.4 0 01.4-.4H23.6c.22 0 .4.18.4.4v1.11a.4.4 0 01-.4.4h-9.594a.4.4 0 01-.4-.4v-1.11zm.4 3.63a.4.4 0 00-.4.4v1.11c0 .22.18.4.4.4H23.6a.4.4 0 00.4-.4v-1.11a.4.4 0 00-.4-.4h-9.594z" fill="#8724CB"/></svg>
